_includes/icons/ios-ios-logo.svg

<svg fill="#666" height="50" viewBox="0 0 50 50" width="50" xmlns="http://www.w3.org/2000/svg"><path d="m15 3c-6.6154664 0-12 5.3845336-12 12v20c0 6.615466 5.3845336 12 12 12h20c6.615466 0 12-5.384534 12-12v-20c0-6.6154664-5.384534-12-12-12zm0 2h20c5.534534 0 10 4.4654664 10 10v20c0 5.534534-4.465466 10-10 10h-20c-5.5345336 0-10-4.465466-10-10v-20c0-5.5345336 4.4654664-10 10-10zm-3.384766 13.066406c-.703 0-1.220703.501157-1.220703 1.160156 0 .650001.517703 1.150391 1.220703 1.150391s1.222657-.500391 1.222657-1.150391c0-.659-.519657-1.160156-1.222657-1.160156zm10.421875.570313c-3.639 0-5.923828 2.548531-5.923828 6.644531 0 4.087 2.240828 6.652344 5.923828 6.652344 3.674 0 5.90625-2.574344 5.90625-6.652344 0-4.087-2.25025-6.643531-5.90625-6.644531zm12.929688 0c-2.768 0-4.615235 1.502718-4.615235 3.761719 0 1.862999 1.045844 2.971812 3.339844 3.507812l1.634766.396484c1.679.395 2.417969.974407 2.417969 1.941407 0 1.125-1.160188 1.941406-2.742188 1.941406-1.695095 0-2.873026-.763908-3.041015-1.966797h-1.953126c.141001 2.268 2.029797 3.716797 4.841797 3.716797 3.006 0 4.886719-1.519313 4.886719-3.945313 0-1.907-1.071828-2.962359-3.673828-3.568359l-1.396484-.34375c-1.652-.387-2.320313-.905547-2.320313-1.810547 0-1.143 1.03775-1.888672 2.59375-1.888672 1.477 0 2.494688.727485 2.679688 1.896485h1.916015c-.114-2.136-1.993359-3.638672-4.568359-3.638672zm-12.929688 1.835937c2.409 0 3.894532 1.864594 3.894532 4.808594 0 2.926-1.486532 4.816406-3.894532 4.816406-2.434 0-3.910156-1.889406-3.910156-4.816406 0-2.944 1.519156-4.807594 3.910156-4.808594zm-11.361328 1.583985v9.570312h1.88086v-9.570312z"/></svg>

<svg xmlns="http://www.w3.org/2000/svg" viewBox="0 0 50 50" width="50" height="50" fill="#666"><path style="line-height:normal;text-indent:0;text-align:start;text-decoration-line:none;text-decoration-style:solid;text-decoration-color:#000;text-transform:none;block-progression:tb;isolation:auto;mix-blend-mode:normal" d="M 15 3 C 8.3845336 3 3 8.3845336 3 15 L 3 35 C 3 41.615466 8.3845336 47 15 47 L 35 47 C 41.615466 47 47 41.615466 47 35 L 47 15 C 47 8.3845336 41.615466 3 35 3 L 15 3 z M 15 5 L 35 5 C 40.534534 5 45 9.4654664 45 15 L 45 35 C 45 40.534534 40.534534 45 35 45 L 15 45 C 9.4654664 45 5 40.534534 5 35 L 5 15 C 5 9.4654664 9.4654664 5 15 5 z M 11.615234 18.066406 C 10.912234 18.066406 10.394531 18.567563 10.394531 19.226562 C 10.394531 19.876563 10.912234 20.376953 11.615234 20.376953 C 12.318234 20.376953 12.837891 19.876562 12.837891 19.226562 C 12.837891 18.567562 12.318234 18.066406 11.615234 18.066406 z M 22.037109 18.636719 C 18.398109 18.636719 16.113281 21.18525 16.113281 25.28125 C 16.113281 29.36825 18.354109 31.933594 22.037109 31.933594 C 25.711109 31.933594 27.943359 29.35925 27.943359 25.28125 C 27.943359 21.19425 25.693109 18.637719 22.037109 18.636719 z M 34.966797 18.636719 C 32.198797 18.636719 30.351562 20.139437 30.351562 22.398438 C 30.351562 24.261437 31.397406 25.37025 33.691406 25.90625 L 35.326172 26.302734 C 37.005172 26.697734 37.744141 27.277141 37.744141 28.244141 C 37.744141 29.369141 36.583953 30.185547 35.001953 30.185547 C 33.306858 30.185547 32.128927 29.421639 31.960938 28.21875 L 30.007812 28.21875 C 30.148813 30.48675 32.037609 31.935547 34.849609 31.935547 C 37.855609 31.935547 39.736328 30.416234 39.736328 27.990234 C 39.736328 26.083234 38.6645 25.027875 36.0625 24.421875 L 34.666016 24.078125 C 33.014016 23.691125 32.345703 23.172578 32.345703 22.267578 C 32.345703 21.124578 33.383453 20.378906 34.939453 20.378906 C 36.416453 20.378906 37.434141 21.106391 37.619141 22.275391 L 39.535156 22.275391 C 39.421156 20.139391 37.541797 18.636719 34.966797 18.636719 z M 22.037109 20.472656 C 24.446109 20.472656 25.931641 22.33725 25.931641 25.28125 C 25.931641 28.20725 24.445109 30.097656 22.037109 30.097656 C 19.603109 30.097656 18.126953 28.20825 18.126953 25.28125 C 18.126953 22.33725 19.646109 20.473656 22.037109 20.472656 z M 10.675781 22.056641 L 10.675781 31.626953 L 12.556641 31.626953 L 12.556641 22.056641 L 10.675781 22.056641 z"/></svg>
